X:1
T:Weeding dub
W:Ordre : AB ACD AE b(8va low)b *pause* a
C:Gypsy Dub
L:1/8
M:2/2
K:Fm
Z:Jessica Hornik
"Introduction" [L:1/4]B2 |c4- & F3-F/G/| c4 &A z3|  =E2>FG/ |  !breath! A2 d2 | c4- & F2>-FG/2 | c2 z2 & A2 x2 | c3 a/2g/2 | f2 z2| 
c4- & FFFF | c4& FFFF| d2d2 & =EEEE | c4 & FFFF| c4- & FFFF| c4 & FFFF | c2G2 | F4 | 
F2>> G2 | A2>> c2| d2d2 |c4 | F2>>G2| A2>>c2 | d2c2|F3 [L:1/8]ce |:
"Thème A" f2f2 ab ag | f2 f2-fg ab | c'2 c'd' !pralltriller!c'b ab | c'2 f4 ce | 
f2 f2 ab ag | f2 f2-fg ab | c'2c'd' c'a c'a |1 f6 ce :|2 f4-fc fa | 
"Thème B"|:c'4-c'd' !pralltriller!c'=b | c'a f2> {/g2} f2 =ef | g=e c2> {/a2}g2 fg | ag f2 agf2 |
c'4 c'd' !pralltriller!c'=b | c'a f2> {/g2}f2 =ef | g=e c2 ag f=e |1 f4-fc fa :|2 f8 "A" | 
"Thème C"|: c2 !pralltriller!cB cd c2 | z c !pralltriller!cB cd c2 |1 d2 dc de d2 | c3 A F uC FA :|2 G2 GB AG =E2 | F4- FuF Ac 
"Thème D"|: f2 !pralltriller!f=e fg a2 | zf !pralltriller!f=e fg a2 |1 g2 !pralltriller!gf ga b2 | ag f2 z c Bc :|2 g2 gb ag =e2 | f8 "A"  | 
"Thème E" c8 | c6-cc | d8 | c8 | G6-GF | A8 | =E4 G4 | F8 | c6-cd | c8 | 
=B8 | c4 A2G2 | A6-AB | A8 | =E4 G4 | F4-F "B (8va lower), B" C FA | 

